T: Seanamhac Tube Station
M: 6/8
L: 1/8
K: Amin
|: AGE EDE | ABd e3 | edB dBG | AGE D3 |
AGE EDE | ABd e3 | edB dBG |1 A3 AGE :||2 A3 ABd ||
|: e3 edB | d3 dBd | edB dBG | AGE D3 |
e3 edB | d3 age | edB dBG | A3 ABd |
e3 edB | d3 dBd | edB dBG | AGE DE/F/G |
AGE AGE | AGE AGE | edB dBG | A3 AB/c/d ||
|: e3 a3 | g2a b2a | age dBe | dBG AB/c/d |
e3 aba | g2a b3 | age dBG | A3 AB/c/d |
e3 a3 | g2a b2a | age dBe | dBG A3 |
AGE EDE | ABd e2a | gea gea | gdB A3 ||
